X: 33211
T: Providence, The
R: reel
M: 4/4
K: Dmajor
CD|:"A"EDEF "D"DEFA|d2fd gdfd|"G"edBd "D"(3ABA FA|"G"BdAF "A"GFED|
EDEF "D"DEFA|d2fd gdfd|"G"edBd "D"A2FA|1 "A"(3Bcd AG "D"FDDF:|2 "A"(3Bcd AG "D"FDDe||
|:fd (3ded fdad|fdd{e}d "A"ecAc|"D"fd (3ded "G"gfed|"A"ceag "D"fd{e}de|
"D"fgaf "G"gfec|"D"dBAF "G"G2FG|"D"(3ABA GB ABde|1 "A"faeg "D"fd{e}de:|2 "A"faeg "D"fdd2||

